X:1
T:102 - Cristo Volta
T:Letra: Frances Ridley Havergal (1836-1879)
T:Trad.: Stuart Edmund McNair (1867-1959)
T:Música: James McGranahan (1840-1907)
M:4/4
L:1/8
Q:1/4=100
K:C
V:1
CE | "C"G>G G>A G>E DC | c>c c>d c2 cB | "F"AA A>^G A>c c>A | "C"Gc G>E "G"D2 CE | "C"G>G G>A G>E DC | c>c c"G"d "C"He2 dc | "F"A>c c>A "C"G>E GG | "F"A>c "G7"cd "C"Hc2 || GG | "C"c>c cd e>d cB | "F"A>c c>A "C"G2 GG | c>c cd e>d cB | "F"A>c c>A "C"G2 CE | "C"G>G G>A G>E DC | c>c cd He2 dc | "F"A>c c>A "C"G>E GG | "F"A>c "G7"cd "C"Hc2 |]
w: 1.~Cris-to vol-ta bre-ve-men-te, Pa-raa-qui no mun-do ter, Em lu-gar de so-fri-men-to, Ma-jes-ta-de com po-der. E-le vol-ta, eem sua gló-ria Bri-lhaa re-ful-gen-te luz Des-se di-a tão que-ri-do Dos re-mi-dos de Je-sus.     Cris-to vol-ta! Cris-to vol-ta!    Pa-rao po-vo seu bus-car;    Cris-to vol-ta tri-un-fan-te,    Pa-ra com po-der rei-nar,                  Cris-to vol-ta! Cris-to vol-ta!    Nos-soa-ma-do Sal-va-dor. Oh, que re-go-zi-joao vê-Lo So-bre to-dos ser Se-nhor!  
w: 2.~Cris-to vol-ta! Nem mais pe-nas, Nem mais pran-to, nem mais dor, Nem mais som-bra de pe-ca-do, Nem mais fal-ta de vi-gor. E-le vol-ta pa-raà gló-ria Su-ai-gre-ja con-du-zir, Pa-ra tê-la, en-tão, Con-si-go No ce-les-tial por-vir.  
w: 3.~Cris-to vol-ta! Não sa-be-mos Em que di-a tem de ser, Mas es-ta-mos con-fi-	a-dos Que seu ros-toi-re-mos ver. A pa-la-vra san-taoa-fir-ma, E não po-de-rá fa-lhar, E por is-soes-pe-ra-re-mos Ver Je-sus a-qui vol-tar.          
W: 
W:
W: 1. Cristo volta brevemente,
W: Para aqui no mundo ter,
W: Em lugar de sofrimento,
W: Majestade com poder.
W: Ele volta, e em sua glória
W: Brilha a refulgente luz
W: Desse dia tão querido
W: Dos remidos de Jesus.
W: 
W:    (Estribilho)
W:    Cristo volta! Cristo volta!
W:    Para o povo seu buscar;
W:    Cristo volta triunfante,
W:    Para com poder reinar,              
W:    Cristo volta! Cristo volta!
W:    Nosso amado Salvador.
W:    Oh, que regozijo ao vê-Lo
W:    Sobre todos ser Senhor!
W: 
W: 
W: 
W: 2. Cristo volta! Nem mais penas,
W: Nem mais pranto, nem mais dor,
W: Nem mais sombra de pecado,
W: Nem mais falta de vigor.
W: Ele volta para à glória
W: Sua igreja conduzir,
W: Para tê-la, então, Consigo
W: No celestial porvir.
W: 
W: 3. Cristo volta! Não sabemos
W: Em que dia tem de ser,
W: Mas estamos confiados
W: Que seu rosto iremos ver.
W: A palavra santa o afirma,
W: E não poderá falhar,
W: E por isso esperaremos
W: Ver Jesus aqui voltar.
W:         
W: 				         
W:           





